X: 42658
T: Whistle And I'll Come To You
R: jig
M: 6/8
K: Dmajor
|:A/G/|FAA B2 G|FAA BAG|FAA def|gfg ecA|
FAA B2 G|FAA ABc|dcd efg|fdc d2:|
|:A|dfa afd|gab a2 f|df/g/a afd|gab a2 f|
gab fga|efg =c2 B|ABA a2 g|fdc d2:|

